theme/icons/cup.svg

<svg fill="none" height="24" stroke="#f4f4f7" stroke-linecap="round" stroke-linejoin="round" stroke-width="2" width="24" xmlns="http://www.w3.org/2000/svg"><path d="m0 0h24v24h-24z" stroke="none"/><path d="m5 11h14v-3h-14zm12.5 0-1.5 10h-8l-1.5-10m-.5-3v-1a2 2 0 0 1 2-2h8a2 2 0 0 1 2 2v1m-3-3v-2"/></svg>

<svg fill="none" height="24" stroke="#f4f4f7" stroke-linecap="round" stroke-linejoin="round" stroke-width="2" width="24" xmlns="http://www.w3.org/2000/svg">
    <path d="M0 0h24v24H0z" stroke="none"/>
    <path d="M5 11h14V8H5zm12.5 0L16 21H8L6.5 11M6 8V7a2 2 0 0 1 2-2h8a2 2 0 0 1 2 2v1m-3-3V3"/>
</svg>
